public/style/workarea/images/icons/exe-colors-icon-green.svg

<svg fill="none" height="25" viewBox="0 0 24 25" width="24" xmlns="http://www.w3.org/2000/svg" xmlns:xlink="http://www.w3.org/1999/xlink"><clipPath id="a"><path d="m0 .299622h24v24h-24z"/></clipPath><g clip-path="url(#a)"><path d="m13.0703 6.95629-8.24858 8.24861m0 0-2.17236 2.1724c-.09335.0933-.1673.2042-.21757.3263l-1.02802 2.4967c-.50767 1.2329.72523 2.4658 1.95814 1.9581l2.49663-1.028c.12208-.0503.233-.1242.32636-.2176l5.7079-5.7079m-7.07108 0h7.07108m4.7131-4.7131-4.7131 4.7131m4.7978-12.77436c.2965-.29651.6485-.53171 1.036-.69218.3874-.16047.8026-.24306 1.2219-.24306s.8345.08259 1.222.24306c.3874.16047.7394.39567 1.0359.69218s.5317.64851.6922 1.03592c.1604.3874.243.80262.243 1.22195 0 .41932-.0826.83454-.243 1.22195-.1605.3874-.3957.73941-.6922 1.03591l-1.9051 1.90508.6591.65907c.3905.39052.3905 1.02368 0 1.41418l-.6085.6086c-.3906.3905-1.0237.3905-1.4143 0l-5.7702-5.7703c-.3905-.39053-.3905-1.02369 0-1.41422l.6085-.60853c.3905-.39053 1.0237-.39052 1.4142.00002l.5955.59545z" stroke="#0ba1a1" stroke-linecap="round" stroke-linejoin="round" stroke-width="1.7"/></g></svg>

<svg width="24" height="25" viewBox="0 0 24 25" fill="none" xmlns="http://www.w3.org/2000/svg">
<g clip-path="url(#clip0_55_83)">
<path d="M13.0703 6.95629L4.82172 15.2049M4.82172 15.2049L2.64936 17.3773C2.55601 17.4706 2.48206 17.5815 2.43179 17.7036L1.40377 20.2003C0.8961 21.4332 2.129 22.6661 3.36191 22.1584L5.85854 21.1304C5.98062 21.0801 6.09154 21.0062 6.1849 20.9128L11.8928 15.2049M4.82172 15.2049L11.8928 15.2049M16.6059 10.4918L11.8928 15.2049M16.6906 2.43054C16.9871 2.13403 17.3391 1.89883 17.7266 1.73836C18.114 1.57789 18.5292 1.4953 18.9485 1.4953C19.3678 1.4953 19.783 1.57789 20.1705 1.73836C20.5579 1.89883 20.9099 2.13403 21.2064 2.43054C21.5029 2.72705 21.7381 3.07905 21.8986 3.46646C22.059 3.85386 22.1416 4.26908 22.1416 4.68841C22.1416 5.10773 22.059 5.52295 21.8986 5.91036C21.7381 6.29776 21.5029 6.64977 21.2064 6.94627L19.3013 8.85135L19.9604 9.51042C20.3509 9.90094 20.3509 10.5341 19.9604 10.9246L19.3519 11.5332C18.9613 11.9237 18.3282 11.9237 17.9376 11.5332L12.1674 5.7629C11.7769 5.37237 11.7769 4.73921 12.1674 4.34868L12.7759 3.74015C13.1664 3.34962 13.7996 3.34963 14.1901 3.74017L14.7856 4.33562L16.6906 2.43054Z" stroke="#0BA1A1" stroke-width="1.7" stroke-linecap="round" stroke-linejoin="round"/>
</g>
<defs>
<clipPath id="clip0_55_83">
<rect width="24" height="24" fill="white" transform="translate(0 0.299622)"/>
</clipPath>
</defs>
</svg>
